!!!SOCIAL_FUNCTION:	summer dances
!!!PDT:	1956
!!!OTL: No_195_Drunken_Dance_Song_(c).krn
!!!LANG: Non-Tone
!!!LING_GROUP: Muskogean
!!!REG: Florida
**kern
*staff1
=1-
*clefF4
*k[b-]
*M3/4
16F\LL
16F\
(16F\
16G\JJ)
4F\
4D\
=2
16F\LL
16F\
(16.G\
32F\JJk)
4D\
4C/
=3
16F\LL
16F\
(16F\
16G\JJ)
4F\
4D\
=4
16F\LL
16F\
(16.G\
32F\JJk)
4D\
4C/
=5
16F\LL
16F\J
8F\J
4G\
4F\
=6
16F\LL
16F\J
8G\J
4G\
4F\
=7
16A\LL
16A\J
8A\J
4A\
4D\
=8
16F\LL
16F\
16.G\
32F\JJk
4D\
4C/
=9
16F\LL
16F\
(16F\
16G\JJ)
4F\
4D\
=10
16F\LL
16F\
(16.G\
32F\JJk)
4D\
4C/
==
*-
